icons/lines/video-add.svg

<svg xmlns="http://www.w3.org/2000/svg" width="24" height="24" viewBox="0 0 24 24" fill="none" stroke="currentColor" stroke-width="2" stroke-linecap="round" stroke-linejoin="round">
  <path d="M15.48 2.11v4.41" />
  <path d="M18.5 16.84v3.36" />
  <path d="M2.52 7.11h18.96" />
  <path d="M20.18 18.48h-3.36" />
  <path d="M22 15a7 7 0 0 1-.02.67 1 1 0 0 0-.14-.17 4.45 4.45 0 0 0-7.84 3 4.5 4.5 0 0 0 .65 2.32 4.1 4.1 0 0 0 .82.99 7 7 0 0 0 .2.17A7 7 0 0 1 15 22H9c-5 0-7-2-7-7V9c0-5 2-7 7-7h6c5 0 7 2 7 7z" />
  <path d="M23 18.5a4 4 0 0 1-.13 1.05 4.7 4.7 0 0 1-.52 1.27A4.49 4.49 0 0 1 18.5 23a4.35 4.35 0 0 1-2.82-1.02 1.3 1.3 0 0 1-.17-.14 4 4 0 0 1-.86-1.02 4.5 4.5 0 0 1 7.16-5.36 2 2 0 0 1 .17.21A4.42 4.42 0 0 1 23 18.5" />
  <path d="M8.52 2.11v4.86" />
</svg>

<svg xmlns="http://www.w3.org/2000/svg" width="24" height="24" viewBox="0 0 24 24" fill="none" stroke="currentColor" stroke-width="2" stroke-linecap="round" stroke-linejoin="round" >
  <path d="M22 9V15C22 15.23 22 15.45 21.98 15.67C21.94 15.61 21.89 15.55 21.84 15.5C21.83 15.49 21.82 15.47 21.81 15.46C21 14.56 19.81 14 18.5 14C17.24 14 16.09 14.52 15.27 15.36C14.48 16.17 14 17.28 14 18.5C14 19.34 14.24 20.14 14.65 20.82C14.87 21.19 15.15 21.53 15.47 21.81C15.49 21.82 15.5 21.83 15.51 21.84C15.56 21.89 15.61 21.93 15.67 21.98C15.46 22 15.23 22 15 22H9C4 22 2 20 2 15V9C2 4 4 2 9 2H15C20 2 22 4 22 9Z"/>
  <path d="M2.52002 7.10999H21.48"/>
  <path d="M8.52002 2.10999V6.96997"/>
  <path d="M15.48 2.10999V6.52002"/>
  <path d="M23 18.5C23 18.86 22.96 19.21 22.87 19.55C22.76 20 22.58 20.43 22.35 20.82C21.57 22.12 20.14 23 18.5 23C17.42 23 16.44 22.62 15.68 21.98C15.67 21.98 15.67 21.98 15.67 21.98C15.61 21.93 15.56 21.89 15.51 21.84C15.5 21.83 15.49 21.82 15.47 21.81C15.15 21.53 14.87 21.19 14.65 20.82C14.24 20.14 14 19.34 14 18.5C14 17.28 14.48 16.17 15.27 15.36C16.09 14.52 17.24 14 18.5 14C19.81 14 21 14.56 21.81 15.46C21.82 15.47 21.83 15.49 21.84 15.5C21.89 15.55 21.94 15.61 21.98 15.67C22.62 16.44 23 17.43 23 18.5Z" stroke-miterlimit="10"/>
  <path d="M20.1798 18.48H16.8198" stroke-miterlimit="10"/>
  <path d="M18.5 16.84V20.2" stroke-miterlimit="10"/>
  </svg>
